X:0273
T:Black Jock.
N:no repeat sign after first part
M:6/8
L:1/8
Q:3/8=120
I: || ::
Z:Jack Campin * www.campin.me.uk * 2009
K:G
D|D2G GFG|ABA AGA|BcB AGF|ABA AGE|G3 E2D|DEF G2||
c|B2c ded|ece d2c|BGB def|gfe dcB|
  c2a B2g|ABA AGA|Bdg dBG|AGA BGE|G3 E2D|DEF G2:|

